X: 3997
T: Blackthorn Stick, The
R: jig
M: 6/8
K: Gmajor
d|BAG (E2G)|D2(D E)GG|G2D GAB|c2c BA(G|B)dB A2|
|:D|GAB c2c|BA(G B)dd|(ed)(c B)AG|EGE DB,(D|E)GG G2:|

